src/images/common/sns-facebook_icon.svg

<svg fill="none" height="20" viewBox="0 0 20 20" width="20" xmlns="http://www.w3.org/2000/svg"><path d="m10 .25c-1.92836 0-3.81343.571828-5.41681 1.64317-1.60337 1.07134-2.85306 2.59409-3.591011 4.37567-.737954 1.78158-.931037 3.74196-.554831 5.63326s1.304802 3.6286 2.668362 4.9922c1.36357 1.3636 3.10085 2.2922 4.99216 2.6684 1.89132.3762 3.85173.1831 5.63333-.5549 1.7815-.7379 3.3043-1.9876 4.3756-3.591 1.0714-1.6034 1.6432-3.4884 1.6432-5.4168-.0027-2.58502-1.0308-5.06339-2.8587-6.89128-1.8279-1.82788-4.3063-2.85599-6.8913-2.85872zm.75 17.9653v-5.9653h2.25c.1989 0 .3897-.079.5303-.2197.1407-.1406.2197-.3314.2197-.5303s-.079-.3897-.2197-.5303c-.1406-.1407-.3314-.2197-.5303-.2197h-2.25v-2.25c0-.39782.158-.77936.4393-1.06066s.6629-.43934 1.0607-.43934h1.5c.1989 0 .3897-.07902.5303-.21967.1407-.14065.2197-.33142.2197-.53033s-.079-.38968-.2197-.53033c-.1406-.14065-.3314-.21967-.5303-.21967h-1.5c-.7956 0-1.5587.31607-2.1213.87868-.56262.56261-.8787 1.32567-.8787 2.12132v2.25h-2.25c-.19891 0-.38967.079-.53033.2197-.14065.1406-.21967.3314-.21967.5303s.07902.3897.21967.5303c.14066.1407.33142.2197.53033.2197h2.25v5.9653c-2.11425-.193-4.07272-1.1936-5.46802-2.7938-1.39531-1.6001-2.12003-3.6766-2.02343-5.79741.0966-2.12085 1.00709-4.12282 2.54209-5.58949 1.53499-1.46667 3.57632-2.28513 5.69936-2.28513 2.1231 0 4.1644.81846 5.6994 2.28513s2.4455 3.46864 2.5421 5.58949c.0966 2.12081-.6282 4.19731-2.0235 5.79741-1.3953 1.6002-3.3537 2.6008-5.468 2.7938z" fill="#fff"/></svg>

<svg width="20" height="20" viewBox="0 0 20 20" fill="none" xmlns="http://www.w3.org/2000/svg">
<path d="M10 0.25C8.07164 0.25 6.18657 0.821828 4.58319 1.89317C2.97982 2.96451 1.73013 4.48726 0.992179 6.26884C0.254225 8.05042 0.061142 10.0108 0.437348 11.9021C0.813554 13.7934 1.74215 15.5307 3.10571 16.8943C4.46928 18.2579 6.20656 19.1865 8.09787 19.5627C9.98919 19.9389 11.9496 19.7458 13.7312 19.0078C15.5127 18.2699 17.0355 17.0202 18.1068 15.4168C19.1782 13.8134 19.75 11.9284 19.75 10C19.7473 7.41498 18.7192 4.93661 16.8913 3.10872C15.0634 1.28084 12.585 0.25273 10 0.25ZM10.75 18.2153V12.25H13C13.1989 12.25 13.3897 12.171 13.5303 12.0303C13.671 11.8897 13.75 11.6989 13.75 11.5C13.75 11.3011 13.671 11.1103 13.5303 10.9697C13.3897 10.829 13.1989 10.75 13 10.75H10.75V8.5C10.75 8.10218 10.908 7.72064 11.1893 7.43934C11.4706 7.15804 11.8522 7 12.25 7H13.75C13.9489 7 14.1397 6.92098 14.2803 6.78033C14.421 6.63968 14.5 6.44891 14.5 6.25C14.5 6.05109 14.421 5.86032 14.2803 5.71967C14.1397 5.57902 13.9489 5.5 13.75 5.5H12.25C11.4544 5.5 10.6913 5.81607 10.1287 6.37868C9.56608 6.94129 9.25 7.70435 9.25 8.5V10.75H7C6.80109 10.75 6.61033 10.829 6.46967 10.9697C6.32902 11.1103 6.25 11.3011 6.25 11.5C6.25 11.6989 6.32902 11.8897 6.46967 12.0303C6.61033 12.171 6.80109 12.25 7 12.25H9.25V18.2153C7.13575 18.0223 5.17728 17.0217 3.78198 15.4215C2.38667 13.8214 1.66195 11.7449 1.75855 9.62409C1.85515 7.50324 2.76564 5.50127 4.30064 4.0346C5.83563 2.56793 7.87696 1.74947 10 1.74947C12.1231 1.74947 14.1644 2.56793 15.6994 4.0346C17.2344 5.50127 18.1449 7.50324 18.2415 9.62409C18.3381 11.7449 17.6133 13.8214 16.218 15.4215C14.8227 17.0217 12.8643 18.0223 10.75 18.2153Z" fill="white"/>
</svg>
